public/images/like-off.svg

<?xml version="1.0" encoding="utf-8"?>
<!-- Generator: Adobe Illustrator 16.0.0, SVG Export Plug-In . SVG Version: 6.00 Build 0)  -->
<!DOCTYPE svg PUBLIC "-//W3C//DTD SVG 1.1//EN" "http://www.w3.org/Graphics/SVG/1.1/DTD/svg11.dtd">
<svg version="1.1" id="Capa_1" xmlns="http://www.w3.org/2000/svg" xmlns:xlink="http://www.w3.org/1999/xlink" x="0px" y="0px"
	 width="48px" height="48px" viewBox="0 0 48 48" enable-background="new 0 0 48 48" xml:space="preserve">
<path fill="#FFC107" d="M11.65,44l4.65-15.2L4,20h15.2L24,4l4.8,16H44l-12.3,8.8L36.35,44L24,34.6L11.65,44z M17.15,35.85L24,30.65
	l6.85,5.199L28.1,27.2l6.301-4.1H26.85L24,14.45l-2.85,8.65H13.6l6.3,4.1L17.15,35.85z"/>
</svg>

<svg xmlns="http://www.w3.org/2000/svg" height="48" width="48"><path d="M24 25.15ZM11.65 44 16.3 28.8 4 20H19.2L24 4L28.8 20H44L31.7 28.8L36.35 44L24 34.6ZM17.15 35.85 24 30.65 30.85 35.85 28.1 27.2 34.4 23.1H26.85L24 14.45L21.15 23.1H13.6L19.9 27.2Z"/></svg>
